X: 23
T: Daldowny's
R:Reel
S:MacDonald - Skye Collection
N:pg.12
M:C
L:1/8
K:A Mix
d|ceae cefe|cAAc e2 ed|1 ceae ce=gd|B=GGB d2 dB:|2 cdef =gefd|B=GGB d2 dB||
cAAe fAeA|cAAc e2 ed|1 cAA[ce] fded|B=GGB d2 dB:|2 cdef =gefd|B=GGB d2 dB||


